!!!COM: Palestrina, Giovanni Perluigi da
!!!OPR: Missa Ecce sacerdos magnus
!!!OMD: Sanctus
!!!OTL: First Section
**kern	**kern	**kern	**kern
*Ibass	*Itenor	*Icalto	*Icant
!Bassus	!Tenor	!Altus	!Cantus
*clefF4	*clefGv2	*clefG2	*clefG2
*k[]	*k[]	*k[]	*k[]
*G:mix	*G:mix	*G:mix	*G:mix
*M4/2	*M4/2	*M4/2	*M4/2
=1	=1	=1	=1
0r	1G	0r	0r
.	[1c	.	.
=2	=2	=2	=2
0r	2c]	[0g	0r
.	4B	.	.
.	4A	.	.
.	2B	.	.
.	2c	.	.
=3	=3	=3	=3
1G	1d	0g]	0r
[1c	[1e	.	.
=4	=4	=4	=4
2c]	2e]	0g	0r
4B	4d	.	.
4A	4c	.	.
2B	2d	.	.
[2c	[2e	.	.
=5	=5	=5	=5
4c]	4e]	0e	1g
4B	8d	.	.
.	8c	.	.
2G	2B	.	.
1A	4A	.	[1cc
.	4B	.	.
.	4c	.	.
.	4d	.	.
=6	=6	=6	=6
2.E	1e	[0g	2cc]
.	.	.	4b
4F	.	.	4a
2G	2d	.	2b
2C	[2c	.	2cc
=7	=7	=7	=7
1G	2c]	0g]	1dd
.	2B	.	.
1r	2.c	.	1ee
.	4d	.	.
=8	=8	=8	=8
1A	2e	[0a	1cc
.	2.f	.	.
[1d	.	.	[1ff
.	4e	.	.
.	2d	.	.
=9	=9	=9	=9
2d]	1A	0a]	2ff]
4c	.	.	4ee
4B	.	.	4dd
2c	1r	.	2ee
2d	.	.	2ff
=10	=10	=10	=10
2e	1r	[0g	2.gg
2.c	.	.	.
.	.	.	4ff
.	1G	.	2ee
8B	.	.	.
8A	.	.	.
2B	.	.	2dd
=11	=11	=11	=11
2c	1.c	0g]	1.ee
2C	.	.	.
1G	.	.	.
.	4B	.	4dd
.	4A	.	4cc
=12	=12	=12	=12
1r	2B	[0g	2dd
.	2c	.	1cc
1G	1d	.	.
.	.	.	2b
=13	=13	=13	=13
1.c	2.e	0g]	2cc
.	.	.	1ee
.	4d	.	.
.	4e	.	.
.	4f	.	.
4B	2g	.	[2dd
4A	.	.	.
=14	=14	=14	=14
2B	2d	0r	2dd]
2c	1g	.	4cc
.	.	.	4b
2.d	.	.	1a
.	4f	.	.
4c	4e	.	.
=15	=15	=15	=15
2A	2f	0r	1r
2.c	2.e	.	.
.	.	.	1g
4B	4d	.	.
2G	[2g	.	.
=16	=16	=16	=16
1A	2g]	0r	1.cc
.	2f	.	.
[1G	2e	.	.
.	[2d	.	4b
.	.	.	4a
=17	=17	=17	=17
0G]	2d]	[0g	2b
.	1c	.	2cc
.	.	.	2.dd
.	4B	.	.
.	4A	.	4cc
=18	=18	=18	=18
0r	2B	0g]	2dd
.	2.c	.	2.ee
.	4B	.	4dd
.	4c	.	[2cc
.	4d	.	.
=19	=19	=19	=19
2r	2e	0g	2cc]
2.G	4d	.	4b
.	4c	.	4a
.	1d	.	1b
4G	.	.	.
2G	.	.	.
=20	=20	=20	=20
2.A	2.c	0e	1cc
4G	4B	.	.
4A	1A	.	1r
4B	.	.	.
[2c	.	.	.
=21	=21	=21	=21
2c]	0G	[0g	2r
4B	.	.	2.dd
4A	.	.	.
1B	.	.	.
.	.	.	4dd
.	.	.	2dd
=22	=22	=22	=22
2.c	0r	0g]	2.ee
4B	.	.	4dd
4c	.	.	4ee
4d	.	.	4ff
2e	.	.	[2gg
=23	=23	=23	=23
1d	2r	[0a	2gg]
.	2.d	.	4ff
.	.	.	4ee
1r	.	.	2.ff
.	4d	.	.
.	2d	.	.
.	.	.	8ee
.	.	.	8dd
=24	=24	=24	=24
2r	0f	0a]	2cc
2.D	.	.	2dd
.	.	.	2a
4D	.	.	.
2D	.	.	[2dd
=25	=25	=25	=25
4E	1e	[0g	2dd]
4D	.	.	.
4E	.	.	1cc
4F	.	.	.
[1G	2r	.	.
.	[2d	.	4b
.	.	.	4a
=26	=26	=26	=26
1G]	4d]	0g]	1b
.	4d	.	.
.	2d	.	.
1C	2.e	.	2cc
.	.	.	[2ee
.	4d	.	.
=27	=27	=27	=27
0r	4e	[0g	4ee]
.	4f	.	4dd
.	2.g	.	4b
.	.	.	4cc
.	.	.	2dd
.	4f	.	.
.	4e	.	[2ee
.	4d	.	.
=28	=28	=28	=28
2r	2c	0g]	2ee]
2.G	2B	.	4dd
.	.	.	4cc
.	2e	.	2b
4G	.	.	.
2G	2d	.	2b
=29	=29	=29	=29
2.A	2c	0r	0cc
.	4A	.	.
4G	4B	.	.
4A	4c	.	.
4B	4d	.	.
[2c	[2e	.	.
=30	=30	=30	=30
2c]	2e]	0r	2r
4B	4d	.	2.g
4A	4c	.	.
2B	2d	.	.
.	.	.	4g
2c	[2g	.	2g
=31	=31	=31	=31
1.A	2g]	0r	2.a
.	4f	.	.
.	4e	.	4g
.	2f	.	4a
.	.	.	4b
2A	[2e	.	[2cc
=32	=32	=32	=32
0G	2e]	[0g	2cc]
.	4d	.	4b
.	4c	.	4a
.	2d	.	2.b
.	2e	.	.
.	.	.	4cc
=33	=33	=33	=33
0r	2B	0g]	2dd
.	2c	.	2ee
.	2G	.	2b
.	[2c	.	2ee
=34	=34	=34	=34
2r	2c]	0g	0dd
2.G	4B	.	.
.	4A	.	.
.	1B	.	.
4G	.	.	.
2G	.	.	.
=35	=35	=35	=35
2.A	1c	0e	2.cc
4G	.	.	4b
4A	1r	.	4cc
4B	.	.	4dd
[2c	.	.	[2ee
=36	=36	=36	=36
2c]	2r	[0g	2ee]
4B	2.d	.	4dd
4A	.	.	4cc
2B	.	.	1dd
.	4d	.	.
2B	2d	.	.
=37	=37	=37	=37
1c	2.e	0g]	1r
.	4d	.	.
1c	4e	.	2r
.	4f	.	.
.	4g	.	[2cc
.	4e	.	.
=38	=38	=38	=38
1A	2f	[0a	4cc]
.	.	.	4cc
.	2e	.	2cc
1D	2f	.	2.dd
.	2f	.	.
.	.	.	4cc
=39	=39	=39	=39
2.D	1d	0a]	4dd
.	.	.	4ee
.	.	.	1ff
4E	.	.	.
1F	2r	.	.
.	[2c	.	4ee
.	.	.	4dd
=40	=40	=40	=40
1C	4c]	[0g	2ee
.	4c	.	.
.	2c	.	2cc
2.G	2.d	.	1b
4A	4c	.	.
=41	=41	=41	=41
2B	2d	0g]	2.g
2c	2e	.	.
.	.	.	4a
2.G	2d	.	4b
.	.	.	4cc
.	2B	.	[2dd
4F	.	.	.
=42	=42	=42	=42
2E	1e	[0g	4dd]
.	.	.	4cc
2C	.	.	1cc
1G	1d	.	.
.	.	.	2b
=43	=43	=43	=43
[0C	[0c	1g_	[0cc
.	.	1g_	.
=44	=44	=44	=44
0C]	0c]	0g]	0cc]
*-	*-	*-	*-
!!!CDT: 1525/^1526/-1594/2/2
!!!OCY: Italia
!!!AGN: Mass (Tenor)
!!!AST: renaissance, vocal
!!!ASW: Antiphon
!!!PWK: Masses, Book I
!!!RNB: Cadence finals: D,C
!!!YOR: Le Opere Complete, v. 1, p. 1
!!!YOO: Rome, Italy: Fratelli Scalera
!!!END: 1992//
!!!EED: John Miller
!!!YEC: Copyright 2000, John Miller
!!!YEN: United States of America
!!!YEM: Rights to all derivative electronic formats reserved.
!!!YEM: Refer to licensing agreement for further details.
!!!YEM: This file must be accompanied by the licensing agreement.
!!!YEM: A copy of the licensing agreement may be found at http://www.music-cog.ohio-state.edu/HumdrumDatabases/Palestrina/license.txt
!!!EMD: converted to Humdrum by Bret Aarden
